X: 1
T: Gan Ainm
M: 4/4
L: 1/8
R: reel
K: Emin
|:BE~E2 BAGE|DEGB A2dc|BE~E2 BAGE|1DEGB ABGA:|2DEGB A2GA||
|:BG~G2 B/c/d ef|gedc BGGB|c2AB cdef|1gedB cAAc:|2g2(3agf gedc||
